X: 1
T: Will You Come Down to Limerick
M: 9/8
L: 1/8
K: G
d|:cAG GDG GBd|cAG G/E/F/G Add|cAG GDG G2 A|1 FGA =fed cAd:|2 FGA =fed cA^F||
|:def gaf ~g3|def gbg afd|1 cde =fge f2 d|cde =fed cA^F:|2 bag agf g2 d|cde =fed cA^F||
|BGB AGF G2 A| ~B3 GBd cBA|1 ~B3 AGF G2 A|FGA =fed cA^F:|2 ~f3 ed^c d2 A|FGA fed cAd||
